svg/fluentui-system-icons/ic_fluent_key_command_20_regular.svg

<svg width="20" height="20" viewBox="0 0 20 20" fill="none" xmlns="http://www.w3.org/2000/svg">
<path d="M5.5 4C6.32843 4 7 4.67157 7 5.5V7H5.5C4.67157 7 4 6.32843 4 5.5C4 4.67157 4.67157 4 5.5 4ZM8 7V5.5C8 4.11929 6.88071 3 5.5 3C4.11929 3 3 4.11929 3 5.5C3 6.88071 4.11929 8 5.5 8H7V12H5.5C4.11929 12 3 13.1193 3 14.5C3 15.8807 4.11929 17 5.5 17C6.88071 17 8 15.8807 8 14.5V13H12V14.5C12 15.8807 13.1193 17 14.5 17C15.8807 17 17 15.8807 17 14.5C17 13.1193 15.8807 12 14.5 12H13V8H14.5C15.8807 8 17 6.88071 17 5.5C17 4.11929 15.8807 3 14.5 3C13.1193 3 12 4.11929 12 5.5V7H8ZM8 8H12V12H8V8ZM13 7V5.5C13 4.67157 13.6716 4 14.5 4C15.3284 4 16 4.67157 16 5.5C16 6.32843 15.3284 7 14.5 7H13ZM13 13H14.5C15.3284 13 16 13.6716 16 14.5C16 15.3284 15.3284 16 14.5 16C13.6716 16 13 15.3284 13 14.5V13ZM7 13V14.5C7 15.3284 6.32843 16 5.5 16C4.67157 16 4 15.3284 4 14.5C4 13.6716 4.67157 13 5.5 13H7Z" fill="#212121"/>
</svg>

<svg xmlns="http://www.w3.org/2000/svg" width="20" height="20"><path d="M5.5 4A1.5 1.5 0 0 1 7 5.5V7H5.5a1.5 1.5 0 1 1 0-3ZM8 7V5.5A2.5 2.5 0 1 0 5.5 8H7v4H5.5A2.5 2.5 0 1 0 8 14.5V13h4v1.5a2.5 2.5 0 1 0 2.5-2.5H13V8h1.5A2.5 2.5 0 1 0 12 5.5V7H8Zm0 1h4v4H8V8Zm5-1V5.5A1.5 1.5 0 1 1 14.5 7H13Zm0 6h1.5a1.5 1.5 0 1 1-1.5 1.5V13Zm-6 0v1.5A1.5 1.5 0 1 1 5.5 13H7Z"/></svg>
